src/assets/img/banks-logo/svg/dnb-color.svg

<svg height="308" viewBox="0 0 601 308" width="601" xmlns="http://www.w3.org/2000/svg"><g fill="none"><path d="m.8.3h600v306.9h-600z" fill="#007684"/><g fill="#fff"><path d="m469.6 222.7h-44.8v-65.4h51.1c22.3 0 37.8 12.5 37.8 30.4 0 8.7 0 35-44.1 35zm-44.8-138h38.1c13.4 0 23.4 2.3 29.8 6.7 4.1 2.9 9.6 8.5 9.6 22.7 0 25.5-20.1 27.5-26.2 27.5h-51.3zm99.4 126.3c3.1-6.7 4.7-14.6 4.7-23.4 0-13.4-5.7-25.4-16-33.9-2.7-2.2-5.6-4.1-8.9-5.8l-.9-.4.7-.6c6.1-5.4 13.4-15.4 13.4-32.8 0-15.9-5.5-27.9-16.3-35.5-9.2-6.5-21.8-9.6-38.7-9.6h-48.6c-2.8 0-5.1 2.3-5.1 5.1v159.2c0 2.8 2.3 5.1 5.1 5.1h55.5c17.5 0 31.5-3.7 41.6-11.1 5.9-4.3 10.4-9.8 13.5-16.3z"/><path d="m365.6 239.3 2.3-.6c1.6-.9 2.5-2.6 2.5-4.5v-234h-15.7v202.4l-104.4-133c-.9-1.3-2.4-2-3.9-2l-2.3.6c-1.6.9-2.5 2.6-2.5 4.5v234.5h15.7v-202.9l104.4 133c.9 1.2 2.4 2 3.9 2"/><path d="m134.4 222.7h-35.4v-138h35.5c13 0 31.3 3.4 44.4 19.4 14.1 17.3 15.2 43.1 15.2 50.6 0 11.2-2 32.4-15.2 48.6-13.2 16-31.4 19.4-44.5 19.4m56-9.5c16.3-19.9 18.7-45.2 18.7-58.5 0-11.3-1.8-39.8-18.7-60.5-7.2-8.8-16.2-15.4-26.8-19.7-9.1-3.7-19.1-5.5-29.8-5.5h-46.1c-2.8 0-5.2 2.3-5.2 5.1v159.2c0 2.8 2.3 5.1 5.1 5.1h46.1c10.7 0 20.7-1.9 29.8-5.5 10.7-4.3 19.8-10.9 26.9-19.7"/></g></g></svg>

<?xml version="1.0" encoding="UTF-8"?>
<svg width="601px" height="308px" viewBox="0 0 601 308" version="1.1" xmlns="http://www.w3.org/2000/svg" xmlns:xlink="http://www.w3.org/1999/xlink">
    <!-- Generator: Sketch 47.1 (45422) - http://www.bohemiancoding.com/sketch -->
    <title>dnb-color</title>
    <desc>Created with Sketch.</desc>
    <defs></defs>
    <g id="Page-1" stroke="none" stroke-width="1" fill="none" fill-rule="evenodd">
        <g id="dnb-color" fill-rule="nonzero">
            <rect id="Rectangle-path" fill="#007684" x="0.8" y="0.3" width="600" height="306.9"></rect>
            <path d="M469.6,222.7 L424.8,222.7 L424.8,157.3 L475.9,157.3 C498.2,157.3 513.7,169.8 513.7,187.7 C513.7,196.4 513.7,222.7 469.6,222.7 L469.6,222.7 Z M424.8,84.7 L462.9,84.7 C476.3,84.7 486.3,87 492.7,91.4 C496.8,94.3 502.3,99.9 502.3,114.1 C502.3,139.6 482.2,141.6 476.1,141.6 L424.8,141.6 L424.8,84.7 L424.8,84.7 Z M524.2,211 C527.3,204.3 528.9,196.4 528.9,187.6 C528.9,174.2 523.2,162.2 512.9,153.7 C510.2,151.5 507.3,149.6 504,147.9 L503.1,147.5 L503.8,146.9 C509.9,141.5 517.2,131.5 517.2,114.1 C517.2,98.2 511.7,86.2 500.9,78.6 C491.7,72.1 479.1,69 462.2,69 L413.6,69 C410.8,69 408.5,71.3 408.5,74.1 L408.5,233.3 C408.5,236.1 410.8,238.4 413.6,238.4 L469.1,238.4 C486.6,238.4 500.6,234.7 510.7,227.3 C516.6,223 521.1,217.5 524.2,211 L524.2,211 Z" id="Shape" fill="#FFFFFF"></path>
            <path d="M365.6,239.3 L367.9,238.7 C369.5,237.8 370.4,236.1 370.4,234.2 L370.4,0.2 L354.7,0.2 L354.7,202.6 L250.3,69.6 C249.4,68.3 247.9,67.6 246.4,67.6 L244.1,68.2 C242.5,69.1 241.6,70.8 241.6,72.7 L241.6,307.2 L257.3,307.2 L257.3,104.3 L361.7,237.3 C362.6,238.5 364.1,239.3 365.6,239.3" id="Shape" fill="#FFFFFF"></path>
            <path d="M134.4,222.7 L99,222.7 L99,84.7 L134.5,84.7 C147.5,84.7 165.8,88.1 178.9,104.1 C193,121.4 194.1,147.2 194.1,154.7 C194.1,165.9 192.1,187.1 178.9,203.3 C165.7,219.3 147.5,222.7 134.4,222.7 M190.4,213.2 C206.7,193.3 209.1,168 209.1,154.7 C209.1,143.4 207.3,114.9 190.4,94.2 C183.2,85.4 174.2,78.8 163.6,74.5 C154.5,70.8 144.5,69 133.8,69 L87.7,69 C84.9,69 82.5,71.3 82.5,74.1 L82.5,233.3 C82.5,236.1 84.8,238.4 87.6,238.4 L133.7,238.4 C144.4,238.4 154.4,236.5 163.5,232.9 C174.2,228.6 183.3,222 190.4,213.2" id="Shape" fill="#FFFFFF"></path>
        </g>
    </g>
</svg>
